dist/images/pseudoElements/baloon.svg

<svg width="81" height="159" viewBox="0 0 81 159" fill="none" xmlns="http://www.w3.org/2000/svg">
<path fill-rule="evenodd" clip-rule="evenodd" d="M37.6024 92.137L37.6027 92.137C38.0315 92.2111 38.4399 92.2817 38.6991 92.8C38.5812 93.1242 38.4546 93.4484 38.327 93.7752L38.3269 93.7753L38.3269 93.7754L38.3267 93.7759C38.0215 94.5576 37.7106 95.3539 37.4991 96.2C36.8991 98.6 37.7991 100.2 40.1991 100.7C41.1991 100.9 42.1991 101 43.1991 100.9C44.7991 100.7 45.1991 101.5 45.4991 102.9C45.9991 105.9 45.5991 108.7 44.3991 111.5C44.1739 111.988 43.9346 112.462 43.6971 112.932C43.3018 113.715 42.9114 114.488 42.5991 115.3C38.9991 123.8 38.0991 132.1 43.8991 140.1C45.2991 142.1 46.1991 144.4 46.3991 146.9C46.6991 150.1 46.8991 153.4 45.8991 156.5C45.5991 157.5 45.4991 158.4 46.6991 158.8C47.7991 159.1 48.3991 158.4 48.7991 157.5C49.0991 156.7 49.3991 155.8 49.4991 154.9C50.1991 148.5 49.3991 142.4 45.4991 137C43.3991 134.1 42.5991 130.8 42.6991 127.2C42.8991 122.9 44.0991 118.8 46.0991 115C48.1991 110.9 49.3991 106.7 48.3991 102.1C48.0991 100.8 48.3991 100.2 49.5991 99.5C51.8991 98.2 52.0991 96.4 50.3991 94.2C50.1357 93.8613 49.8014 93.5651 49.4551 93.2582C48.8809 92.7493 48.2733 92.2108 47.8991 91.4C55.5991 89.5 62.199 85.7 67.499 79.9C77.299 69.2 81.299 56.5 80.299 42.2C79.599 29.9 74.999 19 65.799 10.4C56.7991 2 46.0991 -1.6 33.6991 0.699999C24.6991 2.4 17.399 7.1 11.499 14C-1.40095 29.2 -3.80095 52.5 6.09905 70.4C12.899 82.8 22.9991 90.6 37.3991 92.1C37.467 92.1136 37.535 92.1253 37.6024 92.137ZM45.2991 96.8C44.9702 96.8274 44.6038 96.9224 44.2307 97.0191C43.2424 97.2754 42.2072 97.5437 41.6991 96.6C41.1316 95.6542 42.0849 94.3505 42.8667 93.2813C42.9115 93.2201 42.9557 93.1596 42.9991 93.1C43.1849 93.2195 43.3708 93.3372 43.5557 93.4543C44.7637 94.2195 45.9318 94.9593 46.7991 96C46.6263 96.8635 46.0062 96.8322 45.5182 96.8076L45.4825 96.8058C45.4564 96.8045 45.4308 96.8033 45.4057 96.8024C45.3689 96.8009 45.3333 96.8 45.2991 96.8ZM3.79905 46.5C3.99905 34.1 7.69905 23.1 16.4991 14.2C30.7991 -0.200001 52.299 0.399999 65.699 15.7C74.199 25.4 77.499 37 76.599 49.8C75.799 60.7 71.899 70.3 64.099 78.1C49.699 92.6 28.099 91.8 14.699 76.3C7.29905 67.7 3.99905 57.6 3.79905 46.5ZM64.4989 69.7C64.9989 70 65.3989 70 65.8989 69.7C66.4989 69.4 66.7989 68.9 67.0989 68.4C69.3989 63.4 71.299 58.3 71.3989 52.8C71.3989 50.9 71.1989 49 70.4989 47.1C70.1989 46.4 69.5989 46 68.799 46.2C67.9989 46.4 67.6989 47 67.6989 47.8L67.9989 49.6C68.3989 51.8 68.3989 54 67.9989 56.2C67.2989 59.9 65.9989 63.4 64.4989 66.8C64.4156 67.0501 64.2975 67.2828 64.1808 67.5126L64.1808 67.5127C64.0176 67.8342 63.8573 68.1501 63.799 68.5C63.6989 68.9 63.999 69.4 64.4989 69.7ZM16.999 30.9C16.699 31.9 16.299 32.7 15.199 32.4C14.099 32.1 13.999 31.1 14.099 30.1C15.299 26.3 16.699 22.4 19.399 19.2L19.399 19.2C20.199 18.3 20.999 17.4 21.899 16.6C22.599 15.9 23.499 15.6 24.299 16.4C25.099 17.2 24.599 18 23.899 18.7C20.199 22 18.299 26.3 16.999 30.9ZM15.7991 37C15.6991 36.2 15.2991 35.6 14.3991 35.5C13.4991 35.4 12.7991 36 12.6991 36.9C12.5991 37.8 13.1991 38.4 14.0991 38.5C14.9991 38.6 15.5991 38.1 15.7991 37ZM64.1991 73.2C63.8991 74.2 63.2991 74.6 62.3991 74.4C61.4991 74.2 60.8991 73.7 61.1991 72.7C61.3991 71.9 62.0991 71.3 62.9991 71.5C63.8991 71.7 64.2991 72.4 64.1991 73.2Z" fill="white"/>
</svg>

<svg width="81" height="159" fill="none" xmlns="http://www.w3.org/2000/svg"><path fill-rule="evenodd" clip-rule="evenodd" d="M37.602 92.137c.43.074.838.145 1.097.663-.118.324-.244.648-.372.975-.305.783-.616 1.579-.828 2.425-.6 2.4.3 4 2.7 4.5 1 .2 2 .3 3 .2 1.6-.2 2 .6 2.3 2 .5 3 .1 5.8-1.1 8.6a44.7 44.7 0 0 1-.702 1.432c-.395.783-.786 1.556-1.098 2.368-3.6 8.5-4.5 16.8 1.3 24.8 1.4 2 2.3 4.3 2.5 6.8.3 3.2.5 6.5-.5 9.6-.3 1-.4 1.9.8 2.3 1.1.3 1.7-.4 2.1-1.3.3-.8.6-1.7.7-2.6.7-6.4-.1-12.5-4-17.9-2.1-2.9-2.9-6.2-2.8-9.8.2-4.3 1.4-8.4 3.4-12.2 2.1-4.1 3.3-8.3 2.3-12.9-.3-1.3 0-1.9 1.2-2.6 2.3-1.3 2.5-3.1.8-5.3-.263-.339-.598-.635-.944-.942-.574-.509-1.182-1.047-1.556-1.858 7.7-1.9 14.3-5.7 19.6-11.5 9.8-10.7 13.8-23.4 12.8-37.7-.7-12.3-5.3-23.2-14.5-31.8-9-8.4-19.7-12-32.1-9.7-9 1.7-16.3 6.4-22.2 13.3-12.9 15.2-15.3 38.5-5.4 56.4 6.8 12.4 16.9 20.2 31.3 21.7.068.014.136.025.203.037zM45.3 96.8c-.329.027-.695.122-1.068.22-.989.255-2.024.524-2.532-.42-.567-.946.386-2.25 1.168-3.319l.132-.181c.186.12.372.237.557.354 1.208.766 2.376 1.505 3.243 2.546-.173.864-.793.832-1.28.808l-.036-.002a5.543 5.543 0 0 0-.184-.006zM3.8 46.5C4 34.1 7.7 23.1 16.5 14.2 30.8-.2 52.3.4 65.7 15.7c8.5 9.7 11.8 21.3 10.9 34.1-.8 10.9-4.7 20.5-12.5 28.3-14.4 14.5-36 13.7-49.4-1.8-7.4-8.6-10.7-18.7-10.9-29.8zm60.7 23.2c.5.3.9.3 1.4 0 .6-.3.9-.8 1.2-1.3 2.3-5 4.2-10.1 4.3-15.6 0-1.9-.2-3.8-.9-5.7-.3-.7-.9-1.1-1.7-.9-.8.2-1.1.8-1.1 1.6l.3 1.8c.4 2.2.4 4.4 0 6.6-.7 3.7-2 7.2-3.5 10.6-.083.25-.201.483-.318.713-.163.321-.324.637-.382.987-.1.4.2.9.7 1.2zm-47.5-38.8c-.3 1-.7 1.8-1.8 1.5-1.1-.3-1.2-1.3-1.1-2.3 1.2-3.8 2.6-7.7 5.3-10.9.8-.9 1.6-1.8 2.5-2.6.7-.7 1.6-1 2.4-.2.8.8.3 1.6-.4 2.3-3.7 3.3-5.6 7.6-6.9 12.2zm-1.2 6.1c-.1-.8-.5-1.4-1.4-1.5-.9-.1-1.6.5-1.7 1.4-.1.9.5 1.5 1.4 1.6.9.1 1.5-.4 1.7-1.5zm48.4 36.2c-.3 1-.9 1.4-1.8 1.2-.9-.2-1.5-.7-1.2-1.7.2-.8.9-1.4 1.8-1.2.9.2 1.3.9 1.2 1.7z" fill="#fff"/></svg>
